X: 641
P: Longways for as many as will
M: C|
L: 1/8
K: Gm
[|\
[| (Bc) |\
(dc) (BA) (GA) (Bc) | d4 B4 | (cB) (AG) (FG) (AB) | c4 A4 |\
(dc) (BA) (GA) (Bc) | d4 B4 | (cB) (AG) (^FG) A2 | B2G2 G2 |]
[| (Bc) |\
d2d2 d2(Bc) | d2d2 d2AB | c2c2 c2AB | c2c2 c2Bc |\
d2d2 d2(Bc) | d2d2 d2AB | (cB) (AG) (^FG) A2 | B2G2 G2 |]

